!!!COM: Charles Gounod
!!!CNT: Francais
!!!TXO: Greek
!!!OTL: A une jeune Grecque
!!!LYR: Sapho
!!!TRN: Prosper Yraven
!!!ENC: Jacob Pegg
!!!YOR: Romantic French Song 1830-1870 -David Tunley, ed.,
!!!YOR: New York: Garland Publishing, Inc., 1995, Vol. 5
!!!ODT: 1862/
!!NB: Vocal melody and text only encoded.
!!NB: First instance of melodic material only encoded.
**kern	**silbe
*clef G2	*
*k[b-]	*
*M3/4	*
*MM[presto]	*
!!created: 5/28/03 15:19
!!proofed and posted: 5/28/03 15:49
!!edit time: 28 min.
=7	=7
{8a	{De
8a	la
4a	bel-
8.a	-le
16a	Ti-
=8	=8
[2a	-mar
8a]}	|}
8r	.
=9	=9
{8a	{c'est
8a	i-
4a	-ci
8a	le
8a	tom-
=10	=10
[2g	-beau;
8g]}	|}
8r	.
=11	=11
2.r	.
=12	=12
4r	.
4r	.
{4dd	{Les
=13	=13
2dd	Par-
4dd}	-ques,}
=14	=14
4r	.
4r	.
{8dd	{a-
8dd	-vant
=15	=15
2cc	l'heu-
8cc}	-re,}
8r	.
=16	=16
{4cc	{ont
8cc	d'u-
8cc	-ne
8.cc	main
16cc	cru-
=17	=17
4b-	-el-
4b-}	-le}
4r	.
=18	=18
{8b-	{De
8b-	ses
4b-	jours
8b-	in-
8b-	-com-
=19	=19
[4a	-ple\ts
8a]	|
8a	bri-
8.a	-se/
16a	le
=20	=20
[4a	fil...
8a]}	|}
8r	.
4r	.
=21	=21
4r	.
4r	.
{4a	{Pour
=22	=22
8.a	elle,
16a	He/-
4a}	-las!}
8r	.
{8a	{l'Hy-
=23	=23
2a	-men
8a	n'a
8a	pas
=24	=24
8a	al-
8a	-lu-
4a	-me/
8a	son
8a	flam-
=25	=25
[2g	-beau!
8g]}	|}
8r	.
=26	=26
2.r	.
=27	=27
4r	.
4r	.
{4g	{Et
=28	=28
8g	ses
8g	com-
8g	-pa-
8g	-gnes
8g	e/-
8g	-plo-
=29	=29
4g	-re/-
8g}	-es}
8r	.
{4g	{Ont
=30	=30
8g	a\
8g	ses
8g	cen-
8g	-dres
8g	a-
8g	-do-
=31	=31
2g	-re/-
8g}	-es}
8r	.
=32	=32
8r	.
{8f	{De
8.f	leurs
16f	che-
[4f	-veux
=33	=33
8f]}	|}
16r	.
{16f	{li-
4f	-vres
8.f	au
16f	tran-
=34	=34
4f	-chant
4.f	du
8f	ci-
=35	=35
[4f	-seau
8f]}	|}
8r	.
4r	.
=36	=36
{8en	{Con-
8en	-sa-
4.en	-cre/
8en	les
=37	=37
4e	tres-
4.e	-ses
8e	do-
=38	=38
4d	-re/-
4d}	-es!}
4r	.
*-	*-
